synths/sAAVE.svg

<svg width="480" height="480" viewBox="0 0 480 480" fill="none" xmlns="http://www.w3.org/2000/svg"><mask id="mask0-734212" maskUnits="userSpaceOnUse" x="0" y="0" width="480" height="480"><circle cx="240" cy="240" r="240" fill="url(#paint0_linear-363734)"/></mask><g mask="url(#mask0-734212)"><circle cx="240" cy="240" r="240" fill="#31D8A4"/><circle cx="240" cy="240" r="208" fill="#fff"/></g><circle cx="240" cy="240" r="184" fill="#0E052F"/><path d="M240 424c101.62 0 184-82.38 184-184S341.62 56 240 56 56 138.38 56 240s82.38 184 184 184z" fill="url(#paint1_linear-034607)"/><path d="M320.191 312.578l-61.876-149.395c-3.496-7.719-8.665-11.503-15.507-11.503h-5.472c-6.842 0-12.011 3.784-15.508 11.503l-26.907 65.088h-20.374a11.15 11.15 0 00-7.822 3.246 11.128 11.128 0 00-3.276 7.803v.151a11.125 11.125 0 003.276 7.803 11.146 11.146 0 007.822 3.247h10.944L159.8 312.578a13.065 13.065 0 00-.76 4.239c0 3.481 1.064 6.206 3.041 8.325 1.976 2.119 4.712 3.177 8.209 3.177a11.127 11.127 0 006.384-2.119c1.977-1.363 3.345-3.33 4.409-5.601l28.278-70.08h19.612a11.147 11.147 0 007.821-3.247 11.127 11.127 0 003.277-7.803v-.303a11.13 11.13 0 00-3.277-7.803 11.141 11.141 0 00-7.821-3.246h-10.489l21.588-53.733L298.907 320.6c1.065 2.27 2.433 4.239 4.409 5.6a11.127 11.127 0 006.386 2.12c3.497 0 6.233-1.06 8.21-3.179 1.976-2.12 3.04-4.844 3.04-8.325a9.99 9.99 0 00-.761-4.238z" fill="#fff"/><defs><linearGradient id="paint0_linear-363734" x1="240" y1="0" x2="240" y2="701.818" gradientUnits="userSpaceOnUse"><stop stop-color="#08021E"/><stop offset="1" stop-color="#1F0777"/></linearGradient><linearGradient id="paint1_linear-034607" x1="389.776" y1="139.536" x2="115.984" y2="369.904" gradientUnits="userSpaceOnUse"><stop stop-color="#B6509E"/><stop offset="1" stop-color="#2EBAC6"/></linearGradient></defs></svg>

<svg width="480" height="480" viewBox="0 0 480 480" fill="none" xmlns="http://www.w3.org/2000/svg">
<mask id="mask0-734212" mask-type="alpha" maskUnits="userSpaceOnUse" x="0" y="0" width="480" height="480">
<circle cx="240" cy="240" r="240" fill="url(#paint0_linear-363734)"/>
</mask>
<g mask="url(#mask0-734212)">
<circle cx="240" cy="240" r="240" fill="#31D8A4"/>
<circle cx="240" cy="240" r="208" fill="white"/>
</g>
<circle cx="240" cy="240" r="184" fill="#0E052F"/>
<path d="M240 424C341.62 424 424 341.62 424 240C424 138.38 341.62 56 240 56C138.38 56 56 138.38 56 240C56 341.62 138.38 424 240 424Z" fill="url(#paint1_linear-034607)"/>
<path d="M320.191 312.578L258.315 163.183C254.819 155.464 249.65 151.68 242.808 151.68H237.336C230.494 151.68 225.325 155.464 221.828 163.183L194.921 228.271H174.547C171.614 228.282 168.803 229.449 166.725 231.517C164.648 233.586 163.47 236.39 163.449 239.32V239.471C163.47 242.402 164.648 245.206 166.725 247.274C168.803 249.343 171.614 250.51 174.547 250.521H185.491L159.8 312.578C159.314 313.939 159.057 315.372 159.04 316.817C159.04 320.298 160.104 323.023 162.081 325.142C164.057 327.261 166.793 328.319 170.29 328.319C172.586 328.288 174.816 327.548 176.674 326.2C178.651 324.837 180.019 322.87 181.083 320.599L209.361 250.519H228.973C231.906 250.507 234.717 249.341 236.794 247.272C238.872 245.203 240.049 242.4 240.071 239.469V239.166C240.049 236.236 238.872 233.432 236.794 231.363C234.717 229.294 231.906 228.128 228.973 228.117H218.484L240.072 174.384L298.907 320.6C299.972 322.87 301.34 324.839 303.316 326.2C305.175 327.549 307.405 328.289 309.702 328.32C313.199 328.32 315.935 327.26 317.912 325.141C319.888 323.021 320.952 320.297 320.952 316.816C321.009 315.365 320.75 313.918 320.191 312.578Z" fill="white"/>
<defs>
<linearGradient id="paint0_linear-363734" x1="240" y1="0" x2="240" y2="701.818" gradientUnits="userSpaceOnUse">
<stop stop-color="#08021E"/>
<stop offset="1" stop-color="#1F0777"/>
</linearGradient>
<linearGradient id="paint1_linear-034607" x1="389.776" y1="139.536" x2="115.984" y2="369.904" gradientUnits="userSpaceOnUse">
<stop stop-color="#B6509E"/>
<stop offset="1" stop-color="#2EBAC6"/>
</linearGradient>
</defs>
</svg>
